icons/desktop/16/svg/plane-16.svg

<svg width="16" height="16" viewBox="0 0 16 16" fill="none" xmlns="http://www.w3.org/2000/svg">
<g clip-path="url(#clip0_8069_32659)">
<path fill-rule="evenodd" clip-rule="evenodd" d="M11.2416 0.863643C12.1641 -0.0598081 13.7012 -0.334862 14.8491 0.492549L14.977 0.590205C16.2613 1.6297 16.3376 3.52812 15.1967 4.67028L13.7358 6.1322L14.9604 10.7084L14.9946 10.8558C15.1399 11.5931 14.9109 12.3602 14.3725 12.8978L14.3735 12.8988L13.3256 13.9476C12.7081 14.565 11.6872 14.3767 11.3081 13.6136C11.0079 13.008 10.7067 12.308 10.4409 11.5209C10.2477 10.9491 10.0973 10.4028 9.97993 9.89099L8.05513 11.8177L8.24946 13.4105C8.29643 13.7937 8.16525 14.1769 7.89204 14.4506L6.63911 15.7054C6.18623 16.158 5.36634 16.1001 5.03852 15.4613L5.03755 15.4593C4.74962 14.8941 4.4576 14.2158 4.21626 13.43C4.07267 12.9611 3.9674 12.5152 3.88813 12.1029C3.62752 12.0526 3.35329 11.994 3.0688 11.9193L2.5688 11.7767C1.78394 11.5353 1.10641 11.2432 0.541453 10.9554L0.5395 10.9545C-0.0992575 10.6267 -0.157097 9.80677 0.29536 9.35388L1.54731 8.09997L1.65571 8.00329C1.91727 7.79592 2.25105 7.70107 2.58345 7.73962L2.58833 7.7406L4.1772 7.93493L6.10395 6.00622C5.72071 5.91808 5.31793 5.81221 4.89985 5.68298L4.47505 5.54528C3.68737 5.27923 2.99009 4.9775 2.38423 4.67614C1.62526 4.29768 1.43068 3.27841 2.04927 2.65954L3.09712 1.61071C3.66963 1.03693 4.50535 0.813205 5.28852 1.0238L9.85688 2.24841L11.2416 0.863643ZM13.9711 1.70935C13.5071 1.37505 12.7847 1.442 12.3032 1.92419L10.6127 3.6156C10.4233 3.80528 10.1471 3.8793 9.88813 3.80993L4.89985 2.47204C4.63538 2.401 4.35194 2.47648 4.15864 2.67028L3.35298 3.47692C3.83159 3.70218 4.36567 3.92515 4.95552 4.12439L5.34321 4.25036C6.23715 4.52665 7.05284 4.68981 7.74458 4.78649C8.02621 4.82586 8.26155 5.0208 8.352 5.2904C8.44243 5.56005 8.37231 5.85773 8.17134 6.05896L4.98091 9.25427C4.81772 9.4176 4.58801 9.49618 4.35884 9.46813L2.52388 9.24353L1.85493 9.91345C2.20469 10.0651 2.58894 10.2138 3.00923 10.3431L3.44966 10.4681C3.8811 10.5814 4.28424 10.6601 4.64888 10.7142C4.92916 10.7558 5.16254 10.952 5.25141 11.2211C5.26717 11.2689 5.27581 11.3178 5.28169 11.3666C5.35396 11.849 5.4685 12.3973 5.64985 12.9896C5.77889 13.4097 5.92626 13.7944 6.07759 14.1439L6.74555 13.475L6.5229 11.6371C6.4952 11.4085 6.57403 11.1799 6.73677 11.017L9.9272 7.82165C10.1282 7.62038 10.426 7.5508 10.6958 7.64099C10.9656 7.73133 11.1613 7.96654 11.2006 8.24841C11.3112 9.0405 11.5081 9.99366 11.8618 11.0404C12.0608 11.6296 12.2829 12.1653 12.5073 12.6439L13.3139 11.8383C13.5067 11.6459 13.5822 11.3626 13.5112 11.0961L12.1752 6.10192C12.1061 5.84339 12.1805 5.56768 12.3696 5.37829L14.1352 3.60974C14.6696 3.07472 14.617 2.1752 13.9711 1.70935Z" fill="black"/>
</g>
<defs>
<clipPath id="clip0_8069_32659">
<rect width="16" height="16" fill="white"/>
</clipPath>
</defs>
</svg>

<!-- This Source Code Form is subject to the terms of the Mozilla Public
   - License, v. 2.0. If a copy of the MPL was not distributed with this
   - file, You can obtain one at http://mozilla.org/MPL/2.0/. -->
<svg xmlns="http://www.w3.org/2000/svg" width="16" height="16" fill="context-fill" fill-opacity="context-fill-opacity" viewBox="0 0 16 16">
    <g clip-path="url(#clip0_8069_32659)">
        <path fill-rule="evenodd" d="M11.242.864c.922-.924 2.46-1.199 3.607-.371l.128.097a2.75 2.75 0 0 1 .22 4.08l-1.461 1.462 1.224 4.576.035.148a2.27 2.27 0 0 1-.622 2.042l-1.047 1.05a1.258 1.258 0 0 1-2.018-.334A17 17 0 0 1 9.98 9.89l-1.925 1.927.194 1.593c.047.383-.084.766-.357 1.04l-1.253 1.254c-.453.453-1.273.395-1.6-.244l-.001-.002a12.7 12.7 0 0 1-1.15-3.356q-.391-.073-.82-.184l-.5-.142a12.7 12.7 0 0 1-2.027-.822H.54c-.638-.328-.696-1.148-.244-1.601L1.547 8.1l.109-.097a1.26 1.26 0 0 1 .927-.263h.005l1.59.195 1.926-1.929A17 17 0 0 1 4.9 5.683l-.425-.138a17 17 0 0 1-2.09-.869c-.76-.378-.954-1.398-.336-2.016l1.048-1.05a2.27 2.27 0 0 1 2.192-.586l4.568 1.224zm2.73.845c-.465-.334-1.187-.267-1.669.215l-1.69 1.692a.75.75 0 0 1-.725.194L4.9 2.472a.77.77 0 0 0-.741.198l-.806.807c.479.225 1.013.448 1.603.647l.387.126c.894.277 1.71.44 2.402.536A.75.75 0 0 1 8.17 6.06l-3.19 3.195a.75.75 0 0 1-.622.214l-1.835-.224-.67.67c.35.151.735.3 1.155.43l.44.124c.432.113.835.192 1.2.246a.75.75 0 0 1 .633.653c.072.482.186 1.03.368 1.623.129.42.276.804.428 1.154l.668-.669-.223-1.838a.75.75 0 0 1 .214-.62l3.19-3.195a.75.75 0 0 1 1.274.426 15.4 15.4 0 0 0 1.306 4.396l.807-.806a.77.77 0 0 0 .197-.742l-1.336-4.994a.75.75 0 0 1 .195-.724l1.765-1.768a1.248 1.248 0 0 0-.164-1.9" clip-rule="evenodd" />
    </g>
</svg>
